X: 30363
T: Old Pigeon On The Gate, The
R: reel
M: 4/4
K: Gmajor
G2 BG dGBG|F/F/F AF dFAF|G2 BG dGBG|cBAG FADF|
G2 BG dGBG|F/F/F AF dFAF|G2 BG dGBG|cBAG FA D2||
B/c/d gd BG PG2|ABcd edBd|B/c/d gd BG PG2|cBAG FA D2|
B/c/d gd BG PG2|ABcd e3 d|B/c/d gd BABd|cBAG FA D/E/F||

